svg/device/wash_machine_line.svg

<?xml version="1.0" encoding="UTF-8"?>
<svg width="24px" height="24px" viewBox="0 0 24 24" version="1.1" xmlns="http://www.w3.org/2000/svg" xmlns:xlink="http://www.w3.org/1999/xlink">
    <title>wash_machine_line</title>
    <g id="Icon" stroke="none" stroke-width="1" fill="none" fill-rule="evenodd">
        <g id="Device" transform="translate(-336.000000, -288.000000)" fill-rule="nonzero">
            <g id="wash_machine_line" transform="translate(336.000000, 288.000000)">
                <path d="M24,0 L24,24 L0,24 L0,0 L24,0 Z M12.5935,23.2578 L12.5819,23.2595 L12.5109,23.295 L12.4919,23.2987 L12.4767,23.295 L12.4057,23.2595 C12.3958,23.2564 12.387,23.259 12.3821,23.2649 L12.378,23.2758 L12.3609,23.7031 L12.3659,23.7235 L12.3769,23.7357 L12.4805,23.8097 L12.4953,23.8136 L12.5071,23.8097 L12.6107,23.7357 L12.6233,23.7197 L12.6267,23.7031 L12.6096,23.2758 C12.6076,23.2657 12.601,23.2593 12.5935,23.2578 Z M12.8584,23.1453 L12.8445,23.1473 L12.6598,23.2397 L12.6499,23.2499 L12.6472,23.2611 L12.6651,23.6906 L12.6699,23.7034 L12.6784,23.7105 L12.8793,23.8032 C12.8914,23.8069 12.9022,23.803 12.9078,23.7952 L12.9118,23.7812 L12.8777,23.1665 C12.8753,23.1546 12.8674,23.147 12.8584,23.1453 Z M12.143,23.1473 C12.1332,23.1424 12.1222,23.1453 12.1156,23.1526 L12.1099,23.1665 L12.0758,23.7812 C12.0751,23.7927 12.0828,23.8019 12.0926,23.8046 L12.1083,23.8032 L12.3092,23.7105 L12.3186,23.7024 L12.3225,23.6906 L12.3404,23.2611 L12.3372,23.2485 L12.3278,23.2397 L12.143,23.1473 Z" id="MingCute"></path>
                <path d="M17,2 C18.6569,2 20,3.34315 20,5 L20,19 C20,20.6569 18.6569,22 17,22 L7,22 C5.34315,22 4,20.6569 4,19 L4,5 C4,3.34315 5.34315,2 7,2 L17,2 Z M18,10 L6,10 L6,19 C6,19.5523 6.44772,20 7,20 L17,20 C17.5523,20 18,19.5523 18,19 L18,10 Z M12,11 C14.2091,11 16,12.7909 16,15 C16,17.2091 14.2091,19 12,19 C9.79086,19 8,17.2091 8,15 C8,12.7909 9.79086,11 12,11 Z M12,13 C10.8954,13 10,13.8954 10,15 C10,16.1046 10.8954,17 12,17 C13.1046,17 14,16.1046 14,15 C14,13.8954 13.1046,13 12,13 Z M17,4 L7,4 C6.48716857,4 6.06449347,4.38604429 6.0067278,4.88337975 L6,5 L6,8 L18,8 L18,5 C18,4.44772 17.5523,4 17,4 Z M16,5 C16.5523,5 17,5.44772 17,6 C17,6.51283143 16.613973,6.93550653 16.1166239,6.9932722 L16,7 L15,7 C14.4477,7 14,6.55228 14,6 C14,5.48716857 14.386027,5.06449347 14.8833761,5.0067278 L15,5 L16,5 Z M12,5 C12.5523,5 13,5.44772 13,6 C13,6.55228 12.5523,7 12,7 C11.4477,7 11,6.55228 11,6 C11,5.44772 11.4477,5 12,5 Z" id="形状" fill="#09244B"></path>
            </g>
        </g>
    </g>
</svg>

<svg xmlns="http://www.w3.org/2000/svg" width="24" height="24"><g fill="none" fill-rule="nonzero"><path d="M24 0v24H0V0h24ZM12.594 23.258l-.012.002-.071.035-.02.004-.014-.004-.071-.036c-.01-.003-.019 0-.024.006l-.004.01-.017.428.005.02.01.013.104.074.015.004.012-.004.104-.074.012-.016.004-.017-.017-.427c-.002-.01-.009-.017-.016-.018Zm.264-.113-.014.002-.184.093-.01.01-.003.011.018.43.005.012.008.008.201.092c.012.004.023 0 .029-.008l.004-.014-.034-.614c-.003-.012-.01-.02-.02-.022Zm-.715.002a.023.023 0 0 0-.027.006l-.006.014-.034.614c0 .012.007.02.017.024l.015-.002.201-.093.01-.008.003-.011.018-.43-.003-.012-.01-.01-.184-.092Z"/><path fill="#09244B" d="M17 2a3 3 0 0 1 3 3v14a3 3 0 0 1-3 3H7a3 3 0 0 1-3-3V5a3 3 0 0 1 3-3h10Zm1 8H6v9a1 1 0 0 0 1 1h10a1 1 0 0 0 1-1v-9Zm-6 1a4 4 0 1 1 0 8 4 4 0 0 1 0-8Zm0 2a2 2 0 1 0 0 4 2 2 0 0 0 0-4Zm5-9H7a1 1 0 0 0-.993.883L6 5v3h12V5a1 1 0 0 0-1-1Zm-1 1a1 1 0 0 1 .117 1.993L16 7h-1a1 1 0 0 1-.117-1.993L15 5h1Zm-4 0a1 1 0 1 1 0 2 1 1 0 0 1 0-2Z"/></g></svg>
